images/sale__10.svg

<svg width="80" height="80" viewBox="0 0 80 80" fill="none" xmlns="http://www.w3.org/2000/svg">
<circle cx="40" cy="40" r="40" fill="white"/>
<path fill-rule="evenodd" clip-rule="evenodd" d="M50.2562 54.8208V36.8614L52.0801 39.4119L58.8388 33.3545C55.2985 28.36 52.6166 24.9111 50.7928 23.3172C48.9692 21.7232 46.5018 20.9209 43.4978 20.1771L41.6742 20.7086C39.9576 21.1337 38.563 21.2399 37.4902 21.2399C36.4177 21.1335 34.9156 20.7086 32.8775 19.752C29.4443 20.8148 26.6551 22.0899 24.8312 23.5778C23.0076 25.0655 20.433 28.3598 17.3218 33.3545L23.8659 39.0929L25.904 37.3924L26.1185 54.9267L50.2565 54.8206L50.2562 54.8208Z" fill="white"/>
<path d="M59.3753 33.0356C59.2678 32.9294 59.2678 32.9294 59.2678 32.823C59.1605 32.6105 59.0533 32.5043 58.946 32.2918C58.946 32.2918 58.946 32.1856 58.8388 32.1856C58.7315 32.0792 58.7315 31.973 58.6242 31.8666C58.4097 31.5479 58.1952 31.3354 58.088 31.0164C57.8732 30.6977 57.6587 30.4851 57.5514 30.2726C57.0152 29.5287 56.4789 28.7849 55.9423 28.1472C55.6203 27.7221 55.4058 27.4034 55.084 27.0847C54.5478 26.3408 53.904 25.5967 53.2602 24.8529C52.9384 24.4278 52.7239 24.1091 52.2949 23.7904C51.7583 23.0465 50.9 22.4089 50.042 21.9837C48.6474 21.1335 47.1453 20.4961 45.6435 19.9645C45.1072 19.752 44.5709 19.5394 44.0344 19.4333C43.7123 19.3271 43.4978 19.3271 43.2833 19.2207C43.1758 19.2207 43.0688 19.2207 42.9616 19.3271C41.674 20.1774 39.6359 20.4961 38.1338 20.4961C36.6319 20.4961 34.7011 20.1771 33.3065 19.3271H32.8772C32.6627 19.4333 32.3409 19.4333 32.2337 19.5397C31.6971 19.752 31.1608 19.8584 30.6243 20.0709C29.1225 20.6022 27.5134 21.2399 26.2261 22.0899C25.475 22.6214 24.724 23.1527 24.0804 23.8965L23.9729 24.0029C22.6858 25.4906 21.5058 26.9783 20.3257 28.4662C19.7892 28.9975 19.3601 29.6351 18.9309 30.1664L18.8236 30.2726C18.2873 30.8041 17.9656 31.4415 17.5363 31.973C17.3218 32.2918 17 32.6102 17 33.0353V33.2479C17 33.3543 17 33.4604 17.1073 33.5669C18.1798 34.6294 19.2529 35.7984 20.433 36.8609C21.1837 37.605 21.9348 38.3488 22.7931 38.9865C23.1149 39.3052 23.3294 39.5178 23.6511 39.7303C23.8659 39.8365 24.0804 40.049 24.1877 40.1555C24.2949 40.2616 24.5094 40.1555 24.6167 40.049L25.6895 38.9865V55.1393C25.6895 55.3519 25.904 55.5644 26.1185 55.5644H50.5783C50.7928 55.5644 51.0075 55.3519 51.0075 55.1393V38.7739L51.9728 39.7303L52.0804 39.8365C52.1876 39.9429 52.1876 39.9429 52.2949 39.9429H52.6164C52.7236 39.9429 52.7236 39.8365 52.8309 39.8365C52.9384 39.7303 53.1526 39.6239 53.2599 39.6239C53.5819 39.4116 53.7964 39.0927 54.1182 38.8801C54.8693 38.2427 55.62 37.4986 56.4783 36.7547C57.5512 35.6922 58.7312 34.6294 59.8041 33.4607C59.9116 33.3543 59.9116 33.2479 59.9116 33.2479C59.375 33.1417 59.3753 33.0356 59.3753 33.0356ZM51.3519 25.2345C51.5813 24.9218 51.8239 24.7442 52.0801 24.7019C52.4181 25.0524 52.6166 25.2345 52.9384 25.7034C54.1185 27.0849 55.2985 28.4664 56.3714 29.9541C56.5859 30.1667 56.6931 30.3792 56.9079 30.4854C54.9768 32.5046 53.0457 34.4174 51.0075 36.3301V27.2232C51.0075 27.0106 51.0075 25.7034 51.3519 25.2345ZM34.0573 20.4963C35.3449 21.0276 36.8467 21.2402 38.2413 21.2402C39.6359 21.2402 41.1377 21.0276 42.425 20.4963L42.9616 20.2838L42.854 20.815C42.747 21.7714 42.425 22.6217 41.8887 23.2591C40.9232 24.3219 39.5286 24.6406 38.241 24.6406C36.8467 24.6406 35.4518 24.3219 34.5938 23.2591C34.0573 22.6217 33.7355 21.6653 33.6282 20.815L33.5207 20.2838L34.0573 20.4963ZM25.6898 37.7114L24.1879 39.0929L23.8662 38.8804C23.5441 38.5616 23.2224 38.3491 22.9006 38.1365C22.3641 37.7114 22.0423 37.3927 21.613 36.9676C20.5405 36.0112 19.4677 34.9484 18.5021 33.992C18.2876 33.7794 18.0731 33.5669 17.9658 33.3546L17.8583 33.2481L17.751 33.142L17.8586 32.823C17.9658 32.7169 17.9658 32.6105 18.0731 32.5043C18.3948 31.973 18.6094 31.6541 19.0384 31.2289L19.3604 30.9102L19.6822 31.2292C21.6133 33.2481 23.6514 35.1609 25.69 37.074L25.797 37.1801L25.6898 37.7114ZM25.6898 36.3299C23.6514 34.4171 21.7205 32.5043 19.7894 30.4851C20.0039 30.2726 20.1112 30.06 20.326 29.9538C21.3985 28.4662 22.6861 27.1908 23.7587 25.7032C23.9734 25.3844 24.2952 25.1719 24.4025 24.8529L24.617 24.5342L24.9387 24.8529C25.1535 25.0655 25.368 25.3844 25.4753 25.5967C25.5825 25.9157 25.6898 26.2344 25.797 26.6595C25.797 26.8721 25.9046 27.0847 25.9046 27.1908V36.3299H25.6898ZM50.2305 25.4906C50.016 26.0219 50.0422 26.5534 50.0422 27.0847V54.927H26.4408V27.0847C26.4408 26.5534 26.3333 26.0219 26.1188 25.5967C25.9043 24.9593 25.5825 24.4278 25.0462 24.1091C25.6898 23.4714 26.5481 22.8337 27.2989 22.4086C28.3717 21.7712 29.5518 21.2399 30.7318 20.9209C31.3756 20.6022 32.2339 20.3897 32.8775 20.2835C32.8775 20.7086 32.8775 20.9209 32.985 21.2399C33.092 22.1963 33.5213 23.1527 34.0575 23.8965C35.1303 25.1719 36.7394 25.4906 38.3488 25.4906C39.8506 25.4906 41.5672 25.0655 42.6398 23.8965C43.2836 23.1527 43.6054 22.196 43.7126 21.2399C43.7126 20.9209 43.8201 20.6022 43.8201 20.2835C44.5709 20.4961 45.322 20.7086 45.9655 20.9209C47.1456 21.346 48.3256 21.7712 49.3984 22.4089C50.1495 22.9401 50.9003 23.4714 51.6513 24.1093C50.9003 24.3216 50.445 24.8529 50.2305 25.4906ZM58.4097 33.2481L57.8735 33.7794C56.8009 34.8422 55.8353 35.7986 54.7625 36.7553C54.3332 37.1801 53.9042 37.4988 53.4749 37.924C53.1532 38.2429 52.9387 38.4552 52.5096 38.6678L52.1879 38.8804L50.9003 37.7114L50.6858 37.6053V37.074L50.7933 36.9676C52.8314 35.0548 54.7625 33.142 56.8006 31.1228L57.1227 30.8041C57.3372 31.0166 57.4444 31.2292 57.6589 31.3354C57.9807 31.7605 58.1955 32.1856 58.5173 32.6107L58.7318 32.823L58.4097 33.2481Z" fill="#010066"/>
<path d="M33.5213 20.1775V20.4962C33.6283 20.8149 33.6283 21.3464 33.8428 21.9838L38.2413 20.6023L42.7471 21.8777L43.2833 19.9646L38.0268 18.2644L33.521 20.1775H33.5213Z" fill="white"/>
<path d="M43.0688 22.5153L43.6053 19.7522L38.0265 18.052L32.8774 19.7525L33.4137 22.515L37.9195 21.1335L43.0688 22.515V22.5153ZM33.3065 20.3899L38.0267 18.9022L43.3906 20.3899L42.9615 21.7714L38.0267 20.2838L33.6282 21.7712L33.3065 20.3897V20.3899Z" fill="#010066"/>
<path d="M38.3485 14.864C40.8162 14.4388 41.9963 13.1635 41.9963 10.932C41.996 8.06254 40.2794 7 37.7047 7C36.3099 7 35.4518 7.42512 34.8081 8.27536C34.0573 9.12535 33.628 10.1882 34.0573 11.5694L34.8081 11.2507C34.4863 10.2943 34.8081 9.55021 35.4518 8.80664C36.0954 8.16895 36.7392 7.85024 37.812 7.85024C39.9576 7.85024 41.2447 8.59408 41.2447 10.932C41.2447 12.8448 40.1721 13.8012 37.9192 14.1199H37.5975V18.2644H38.4555L38.3483 14.864H38.3485Z" fill="#010066"/>
<path fill-rule="evenodd" clip-rule="evenodd" d="M30.1292 50.1511L38.9262 69.2795V69.8108H58.6654L60.4892 47.1758L58.4508 34.7422L59.2019 34.4235V30.1728L38.9262 29.9602L39.0334 34.5299L38.9262 46.2194L30.1292 50.1511Z" fill="white"/>
<path fill-rule="evenodd" clip-rule="evenodd" d="M38.6807 69.8108C38.6807 69.5567 38.8867 69.3506 39.1409 69.3506H58.6656C58.9198 69.3506 59.1258 69.5567 59.1258 69.8108C59.1258 70.065 58.9198 70.2711 58.6656 70.2711H39.1409C38.8867 70.2711 38.6807 70.065 38.6807 69.8108Z" fill="#010066"/>
<path fill-rule="evenodd" clip-rule="evenodd" d="M39.3866 30.4915C39.3866 30.4915 39.3866 30.4915 39.3866 30.4915V33.8799C39.3872 33.8816 39.388 33.8838 39.3891 33.8865C39.395 33.9005 39.4052 33.9175 39.4187 33.9329C39.4321 33.948 39.4441 33.9563 39.4515 33.96C39.4575 33.9631 39.4602 33.9633 39.4626 33.9633H58.5582C58.5848 33.9633 58.6112 33.9593 58.6345 33.9527V30.504C58.6339 30.5023 58.6331 30.5001 58.632 30.4974C58.6261 30.4835 58.6159 30.4664 58.6023 30.451C58.5889 30.4358 58.5769 30.4275 58.5694 30.4238C58.5634 30.4207 58.5606 30.4205 58.5582 30.4205H39.4731C39.471 30.4212 39.4679 30.4222 39.4639 30.4239C39.4489 30.4301 39.4312 30.4406 39.4155 30.4541C39.4 30.4676 39.392 30.4792 39.3887 30.4856C39.3862 30.4904 39.3865 30.4914 39.3866 30.4915ZM38.8125 29.7586C38.9857 29.6085 39.2231 29.5 39.4626 29.5H58.5582C58.8806 29.5 59.1325 29.6609 59.292 29.8414C59.4436 30.0129 59.555 30.2502 59.555 30.4915V33.8302C59.6303 34.156 59.4989 34.4432 59.2888 34.6253C59.0829 34.8036 58.8085 34.8838 58.5582 34.8838H39.4626C39.1401 34.8838 38.8883 34.7229 38.7288 34.5423C38.5772 34.3707 38.4661 34.1335 38.4661 33.8922V30.4915C38.4661 30.1672 38.631 29.916 38.8125 29.7586Z" fill="#010066"/>
<path fill-rule="evenodd" clip-rule="evenodd" d="M43.1412 30.8104C43.1412 30.8104 43.1412 30.8104 43.1412 30.8104V33.8798C43.1418 33.8815 43.1426 33.8837 43.1438 33.8864C43.1496 33.9004 43.1598 33.9174 43.1734 33.9328C43.1868 33.9479 43.1987 33.9562 43.2061 33.9599C43.2121 33.963 43.2149 33.9632 43.2172 33.9632H44.8266C44.864 33.9632 44.8884 33.9555 44.9026 33.9488V30.8227C44.902 30.821 44.9012 30.8188 44.9 30.816C44.8941 30.802 44.8839 30.7849 44.8703 30.7695C44.8569 30.7543 44.8449 30.7461 44.8376 30.7423C44.8316 30.7393 44.8289 30.7391 44.8266 30.7391H43.2278C43.2257 30.7398 43.2226 30.7408 43.2186 30.7425C43.2036 30.7487 43.1859 30.7591 43.1702 30.7727C43.1547 30.7862 43.1467 30.7978 43.1434 30.8043C43.141 30.8089 43.1412 30.8101 43.1412 30.8104ZM42.5671 30.0773C42.7403 29.9271 42.9777 29.8186 43.2172 29.8186H44.8266C45.1492 29.8186 45.401 29.9797 45.5604 30.1603C45.712 30.332 45.8231 30.5692 45.8231 30.8104V33.9983C45.8231 34.5326 45.3292 34.8837 44.8266 34.8837H43.2172C42.8948 34.8837 42.643 34.7227 42.4835 34.5422C42.3319 34.3706 42.2207 34.1333 42.2207 33.8921V30.8104C42.2207 30.4861 42.3855 30.2348 42.5671 30.0773ZM52.7963 30.8104C52.7963 30.8104 52.7963 30.8104 52.7963 30.8104V33.8798C52.7969 33.8815 52.7977 33.8837 52.7988 33.8864C52.8047 33.9004 52.8149 33.9174 52.8285 33.9328C52.8418 33.9479 52.8538 33.9562 52.8612 33.9599C52.8672 33.963 52.8699 33.9632 52.8723 33.9632H54.4598C54.4668 33.9591 54.4779 33.9518 54.4921 33.9398C54.5145 33.9207 54.5372 33.8963 54.5577 33.8693V30.8227C54.5571 30.821 54.5563 30.8188 54.5551 30.816C54.5492 30.802 54.539 30.7849 54.5254 30.7695C54.512 30.7543 54.5 30.7461 54.4926 30.7423C54.4867 30.7393 54.484 30.7391 54.4817 30.7391H52.8829C52.8807 30.7398 52.8777 30.7408 52.8737 30.7425C52.8587 30.7487 52.8409 30.7591 52.8253 30.7727C52.8098 30.7862 52.8018 30.7978 52.7984 30.8043C52.7961 30.8089 52.7963 30.8101 52.7963 30.8104ZM52.2222 30.0773C52.3953 29.9271 52.6328 29.8186 52.8723 29.8186H54.4817C54.8043 29.8186 55.0561 29.9797 55.2155 30.1603C55.3671 30.332 55.4782 30.5692 55.4782 30.8104V34.1078L55.4288 34.2056C55.35 34.3619 55.2326 34.5185 55.088 34.6414C54.9483 34.7599 54.7388 34.8837 54.4817 34.8837H52.8723C52.5499 34.8837 52.2981 34.7227 52.1386 34.5422C51.987 34.3706 51.8758 34.1333 51.8758 33.8921V30.8104C51.8758 30.4861 52.0406 30.2348 52.2222 30.0773Z" fill="#010066"/>
<path fill-rule="evenodd" clip-rule="evenodd" d="M38.5733 34.53L38.5733 34.5286L39.0336 34.53H39.4938V69.2489L39.6652 69.6164L39.4938 69.6963V69.7047H39.4757L39.3871 69.7461L39.3866 69.9187L39.0193 69.9176L38.831 70.0054L38.7897 69.9169L38.4661 69.9159L38.4682 69.2275L29.7122 50.4522L29.5 50.0811L29.9452 49.7294L38.5386 45.9801L38.5733 34.53ZM38.5356 46.9857L30.7046 50.4024L31.2561 51.5848L38.5313 48.3818L38.5356 46.9857ZM31.6452 52.4193L38.4747 67.0636L38.5283 49.3889L31.6452 52.4193ZM60.0264 46.9823L58.1036 34.8141L59.0129 34.6704L60.944 46.8915L59.2317 69.8454L58.3138 69.7764L60.0264 46.9823ZM43.7849 40.4799L43.7848 40.4809V41.85C43.7854 41.8517 43.7862 41.8539 43.7874 41.8566C43.7932 41.8706 43.8034 41.8876 43.817 41.903C43.8304 41.9181 43.8423 41.9264 43.8498 41.9302C43.8558 41.9332 43.8586 41.9334 43.8611 41.9334H54.4505V40.4933C54.4499 40.4916 54.4491 40.4894 54.448 40.4867C54.4421 40.4727 54.4319 40.4556 54.4184 40.4403C54.405 40.4252 54.393 40.4169 54.3856 40.4131C54.3796 40.4101 54.3767 40.4099 54.3742 40.4099H43.8716C43.8695 40.4105 43.8664 40.4116 43.8624 40.4133C43.8473 40.4195 43.8295 40.43 43.8138 40.4436C43.7982 40.4571 43.7902 40.4687 43.7869 40.4751C43.7861 40.4766 43.7854 40.4785 43.7854 40.4785L43.7849 40.4799ZM43.211 39.7479C43.3842 39.5978 43.6216 39.4894 43.8611 39.4894H54.3742C54.6967 39.4894 54.9486 39.6502 55.1082 39.8308C55.2598 40.0024 55.371 40.2397 55.371 40.4809V41.9685C55.371 42.226 55.2459 42.4439 55.1007 42.5877C55.0844 42.6038 55.0673 42.6197 55.0493 42.6351V48.6636C55.1527 48.8617 54.9397 49.1111 54.7539 49.2473L49.3898 53.1793C49.1848 53.3296 48.8967 53.2852 48.7465 53.0802C48.7442 53.0771 48.742 53.074 48.7398 53.0709L48.7383 53.0729L43.1863 48.6636V42.5743C43.1654 42.5541 43.1457 42.5334 43.1272 42.5125C42.9755 42.3408 42.8643 42.1036 42.8643 41.8624V40.4809C42.8643 40.1564 43.0294 39.9052 43.211 39.7479ZM44.1069 42.8539V48.5364L49.1366 52.2235L54.1288 48.5642V42.8539H44.1069Z" fill="#010066"/>
</svg>

<svg width="80" height="80" fill="none" xmlns="http://www.w3.org/2000/svg"><circle cx="40" cy="40" r="40" fill="#fff"/><path fill-rule="evenodd" clip-rule="evenodd" d="M50.256 54.82V36.862l1.824 2.55 6.759-6.056c-3.54-4.995-6.222-8.444-8.046-10.038-1.824-1.594-4.291-2.396-7.295-3.14l-1.824.532c-1.716.425-3.111.53-4.184.53-1.072-.105-2.574-.53-4.613-1.487-3.433 1.063-6.222 2.338-8.046 3.826-1.823 1.488-4.398 4.782-7.51 9.777l6.545 5.738 2.038-1.7.215 17.534 24.138-.106Z" fill="#fff"/><path d="M59.375 33.036c-.107-.107-.107-.107-.107-.213-.108-.212-.215-.319-.322-.531 0 0 0-.106-.107-.106-.108-.107-.108-.213-.215-.32-.214-.318-.429-.53-.536-.85-.215-.318-.43-.53-.537-.743-.536-.744-1.072-1.488-1.609-2.126-.322-.425-.536-.744-.858-1.062-.536-.744-1.18-1.488-1.824-2.232-.322-.425-.536-.744-.965-1.063-.537-.743-1.395-1.381-2.253-1.806-1.395-.85-2.897-1.488-4.398-2.02-.537-.212-1.073-.425-1.61-.53-.322-.107-.536-.107-.75-.213-.108 0-.215 0-.322.106-1.288.85-3.326 1.17-4.828 1.17-1.502 0-3.433-.32-4.828-1.17h-.429c-.214.106-.536.106-.643.213-.537.212-1.073.318-1.61.53-1.502.532-3.11 1.17-4.398 2.02-.751.531-1.502 1.063-2.146 1.806l-.107.107c-1.287 1.488-2.467 2.975-3.647 4.463-.537.531-.966 1.17-1.395 1.7l-.107.107c-.537.531-.858 1.169-1.288 1.7-.214.319-.536.637-.536 1.062v.213c0 .106 0 .212.107.319 1.073 1.062 2.146 2.231 3.326 3.294.75.744 1.502 1.488 2.36 2.126.322.318.536.53.858.743.215.107.43.319.537.426.107.106.321 0 .429-.107l1.072-1.063V55.14c0 .213.215.425.43.425h24.46c.214 0 .428-.212.428-.425V38.774l.966.956.107.107c.108.106.108.106.215.106h.321c.108 0 .108-.106.215-.106.107-.107.322-.213.429-.213.322-.212.536-.531.858-.744.751-.637 1.502-1.381 2.36-2.125 1.073-1.063 2.253-2.126 3.326-3.294.108-.107.108-.213.108-.213-.537-.106-.537-.212-.537-.212Zm-8.023-7.802c.23-.312.472-.49.728-.532.338.35.537.532.858 1.001 1.18 1.382 2.36 2.763 3.433 4.251.215.213.322.425.537.531a152.257 152.257 0 0 1-5.9 5.845v-9.107c0-.212 0-1.52.344-1.988Zm-17.295-4.738c1.288.532 2.79.744 4.184.744 1.395 0 2.897-.212 4.184-.744l.537-.212-.108.531c-.107.956-.429 1.807-.965 2.444-.966 1.063-2.36 1.382-3.648 1.382-1.394 0-2.79-.32-3.647-1.382-.537-.637-.858-1.594-.966-2.444l-.107-.531.536.212ZM25.69 37.711l-1.502 1.382-.322-.213c-.322-.318-.644-.53-.965-.744-.537-.425-.859-.743-1.288-1.168-1.072-.957-2.145-2.02-3.11-2.976-.215-.213-.43-.425-.537-.637l-.108-.107-.107-.106.108-.319c.107-.106.107-.212.214-.319.322-.531.536-.85.965-1.275l.322-.319.322.32c1.931 2.018 3.97 3.93 6.008 5.844l.107.106-.107.531Zm0-1.381a152.19 152.19 0 0 1-5.9-5.845c.214-.212.321-.425.536-.531 1.072-1.488 2.36-2.763 3.433-4.25.214-.32.536-.532.643-.851l.215-.319.322.319c.215.212.429.531.536.744.107.319.215.637.322 1.063 0 .212.108.425.108.53v9.14h-.215Zm24.54-10.84c-.214.532-.188 1.063-.188 1.595v27.842H26.441V27.085c0-.532-.108-1.063-.322-1.488-.215-.638-.537-1.17-1.073-1.488a11.378 11.378 0 0 1 2.253-1.7c1.073-.638 2.253-1.17 3.433-1.488.644-.319 1.502-.531 2.145-.637 0 .425 0 .637.108.956.107.956.536 1.913 1.072 2.657 1.073 1.275 2.682 1.594 4.292 1.594 1.502 0 3.218-.425 4.29-1.595.645-.743.966-1.7 1.074-2.656 0-.32.107-.638.107-.956.75.212 1.502.425 2.145.637 1.18.425 2.36.85 3.433 1.488.752.531 1.502 1.062 2.253 1.7-.75.213-1.206.744-1.42 1.382Zm8.18 7.758-.536.531c-1.073 1.063-2.039 2.02-3.111 2.976-.43.425-.859.744-1.288 1.169-.322.319-.536.531-.965.744l-.322.212-1.288-1.169-.214-.106v-.531l.107-.106c2.038-1.913 3.97-3.826 6.008-5.845l.322-.319c.214.213.321.425.536.531.322.425.537.85.858 1.276l.215.212-.322.425Z" fill="#010066"/><path d="M33.521 20.177v.32c.107.318.107.85.322 1.487l4.398-1.382 4.506 1.276.536-1.913-5.256-1.7-4.506 1.912Z" fill="#fff"/><path d="m43.069 22.515.536-2.763-5.578-1.7-5.15 1.7.537 2.763 4.505-1.381 5.15 1.381Zm-9.763-2.125 4.72-1.488 5.365 1.488-.43 1.381-4.934-1.487-4.399 1.487-.322-1.381Z" fill="#010066"/><path d="M38.349 14.864c2.467-.425 3.647-1.7 3.647-3.932C41.996 8.062 40.28 7 37.705 7c-1.395 0-2.253.425-2.897 1.275-.75.85-1.18 1.913-.75 3.294l.75-.318c-.322-.957 0-1.7.644-2.444.643-.638 1.287-.957 2.36-.957 2.146 0 3.433.744 3.433 3.082 0 1.913-1.073 2.87-3.326 3.188h-.322v4.144h.858l-.107-3.4Z" fill="#010066"/><path fill-rule="evenodd" clip-rule="evenodd" d="m30.13 50.151 8.796 19.128v.532h19.74l1.823-22.635-2.038-12.434.75-.319v-4.25l-20.275-.213.107 4.57-.107 11.69-8.797 3.931Z" fill="#fff"/><path fill-rule="evenodd" clip-rule="evenodd" d="M38.68 69.81a.46.46 0 0 1 .46-.46h19.526a.46.46 0 0 1 0 .921H39.14a.46.46 0 0 1-.46-.46ZM39.387 30.491v3.389a.144.144 0 0 0 .032.053.117.117 0 0 0 .033.027c.006.003.008.003.01.003h19.096a.284.284 0 0 0 .077-.01v-3.449a.144.144 0 0 0-.033-.053.115.115 0 0 0-.033-.027.022.022 0 0 0-.01-.003H39.472l-.01.003a.187.187 0 0 0-.047.03.115.115 0 0 0-.027.032c-.003.004-.003.005-.002.005Zm-.575-.732c.174-.15.411-.259.65-.259h19.096a.98.98 0 0 1 .734.341c.152.172.263.41.263.65v3.34a.8.8 0 0 1-.266.794c-.206.179-.48.259-.73.259H39.462a.979.979 0 0 1-.734-.342 1.014 1.014 0 0 1-.263-.65v-3.4a.97.97 0 0 1 .346-.733Z" fill="#010066"/><path fill-rule="evenodd" clip-rule="evenodd" d="M43.141 30.81v3.07l.003.006a.174.174 0 0 0 .03.047.117.117 0 0 0 .032.027.022.022 0 0 0 .011.003h1.61a.177.177 0 0 0 .076-.014v-3.126a.177.177 0 0 0-.032-.053.12.12 0 0 0-.033-.028.022.022 0 0 0-.011-.003h-1.6l-.008.003a.184.184 0 0 0-.049.03.114.114 0 0 0-.027.032l-.002.006Zm-.574-.733c.173-.15.41-.258.65-.258h1.61c.322 0 .574.16.733.341.152.172.263.41.263.65v3.188c0 .535-.494.886-.996.886h-1.61a.98.98 0 0 1-.733-.342 1.015 1.015 0 0 1-.263-.65V30.81c0-.324.165-.575.346-.733Zm10.23.733v3.07a.144.144 0 0 0 .032.053.116.116 0 0 0 .032.027c.006.003.009.003.011.003h1.588a.457.457 0 0 0 .098-.094v-3.046a.177.177 0 0 0-.032-.053.118.118 0 0 0-.033-.028.022.022 0 0 0-.011-.003h-1.6a.183.183 0 0 0-.058.034.117.117 0 0 0-.026.031l-.002.006Zm-.575-.733c.173-.15.41-.258.65-.258h1.61c.322 0 .574.16.733.341.152.172.263.41.263.65v3.298l-.05.098a1.422 1.422 0 0 1-.34.435.95.95 0 0 1-.606.243h-1.61a.98.98 0 0 1-.733-.342 1.015 1.015 0 0 1-.263-.65V30.81c0-.324.165-.575.346-.733ZM38.573 34.53v-.001l.46.001h.46v34.719l.172.367-.171.08v.009h-.018l-.089.041v.173l-.368-.001-.188.087-.041-.088-.324-.001.002-.688-8.756-18.776-.212-.37.445-.353 8.594-3.749.034-11.45Zm-.037 12.456-7.831 3.416.551 1.183 7.275-3.203.005-1.396Zm-6.89 5.433 6.829 14.645.053-17.675-6.883 3.03Zm28.38-5.437-1.922-12.168.909-.144 1.931 12.221-1.712 22.954-.918-.069 1.712-22.794ZM43.785 40.48v1.37l.002.007a.174.174 0 0 0 .03.046.118.118 0 0 0 .033.027.023.023 0 0 0 .011.003h10.59v-1.44a.144.144 0 0 0-.033-.053.12.12 0 0 0-.032-.027.023.023 0 0 0-.012-.003H43.872a.184.184 0 0 0-.058.034.115.115 0 0 0-.027.031c0 .002-.002.003-.002.003v.002Zm-.574-.732c.173-.15.41-.259.65-.259h10.513a.98.98 0 0 1 .734.342c.152.171.263.409.263.65v1.487a.884.884 0 0 1-.322.667v6.029c.104.198-.11.447-.295.583L49.39 53.18a.46.46 0 0 1-.65-.108l-.002.002-5.552-4.41v-6.089l-.059-.061a1.015 1.015 0 0 1-.263-.65V40.48a.97.97 0 0 1 .347-.733Zm.896 3.106v5.682l5.03 3.688 4.992-3.66v-5.71H44.107Z" fill="#010066"/></svg>
